X:5
T:Crest the Summit
C:Corwin Zekley
L:1/8
M:6/8
K:Dmin
"Dm" D2 E/F/ AdA | cAG A3 | DdD cDB | !trill(!A2!trill)! G AGF |1$"Am" ECA, A,CE |"Bb" FDB, B,DF | %6
"C" GG,C EGc |"G" =BAG"A" A3 :|2$"Am" A,DE AED ||"Bb" B,DF BFD |"C" CDG Ade |"Am" a3 a2 e |$ %12
"G" g3 gag |"Dm" f2 d3 f |"G" !trill(!g3!trill)! =bag |"Dm" afd A2 =B |1$"C" cgc acg | %17
"Dm" !trill(!f2!trill)! e fed |"C" ced c=BA |"G" =BAG"Am" A3 :|2$"C" !trill(!c3!trill)! edc || %21
"Dm" dAF DEF |"E7" E=BE dEB |"A7" EAE GFE ||"Dm""^Last Time Only\n" D2 x4 |] %25

